icons/svg/pause-circle-outline.svg

﻿<?xml version="1.0" encoding="utf-8"?>
<!DOCTYPE svg PUBLIC "-//W3C//DTD SVG 1.1//EN" "http://www.w3.org/Graphics/SVG/1.1/DTD/svg11.dtd">
<svg xmlns="http://www.w3.org/2000/svg" xmlns:xlink="http://www.w3.org/1999/xlink" version="1.1" baseProfile="full" width="24" height="24" viewBox="0 0 24.00 24.00" enable-background="new 0 0 24.00 24.00" xml:space="preserve">
	<path fill="#000000" fill-opacity="1" stroke-width="0.2" stroke-linejoin="round" d="M 12.9994,16.136L 14.9994,16.136L 14.9994,8.13605L 12.9994,8.13605M 11.9994,20.136C 7.58838,20.136 3.99939,16.548 3.99939,12.136C 3.99939,7.72504 7.58838,4.13605 11.9994,4.13605C 16.4104,4.13605 19.9994,7.72504 19.9994,12.136C 19.9994,16.548 16.4104,20.136 11.9994,20.136 Z M 11.9994,2.13605C 6.47638,2.13605 1.99939,6.61304 1.99939,12.136C 1.99939,17.66 6.47638,22.136 11.9994,22.136C 17.5224,22.136 21.9994,17.66 21.9994,12.136C 21.9994,6.61304 17.5224,2.13605 11.9994,2.13605 Z M 8.99939,16.136L 10.9994,16.136L 10.9994,8.13605L 8.99939,8.13605L 8.99939,16.136 Z "/>
</svg>

<svg xmlns="http://www.w3.org/2000/svg" version="1.1" baseProfile="full" width="24" height="24" viewBox="0 0 24.00 24.00" xml:space="preserve"><path fill="#000" fill-opacity="1" stroke-width=".2" stroke-linejoin="round" d="M13 16.136h2v-8h-2m-1 12c-4.412 0-8-3.588-8-8 0-4.41 3.588-8 8-8 4.41 0 8 3.59 8 8 0 4.412-3.59 8-8 8zm0-18c-5.524 0-10 4.477-10 10 0 5.524 4.476 10 10 10 5.522 0 10-4.476 10-10 0-5.523-4.478-10-10-10zm-3 14h2v-8H9v8z"/></svg>
